_site/images/homepage/check-icon-small.svg

<svg fill="none" height="10" viewBox="0 0 13 10" width="13" xmlns="http://www.w3.org/2000/svg"><path d="m10.2174.489346-5.34074 5.490954-2.09411-2.16311c-.63654-.65246-1.66859-.65246-2.305139 0-.636548.65247-.636548 1.71031 0 2.36278l3.246679 3.32784c.30481.31501.71973.49219 1.15257.49219s.84776-.17718 1.15257-.49219l6.49337-6.65569c.6365-.65246.6365-1.71031 0-2.362774-.6366-.652461-1.6686-.652461-2.3052 0z" fill="#00a0b6"/></svg>

<svg width="13" height="10" viewBox="0 0 13 10" fill="none" xmlns="http://www.w3.org/2000/svg">
<path d="M10.2174 0.489346L4.87666 5.9803L2.78255 3.81719C2.14601 3.16473 1.11396 3.16473 0.477411 3.81719C-0.159137 4.46966 -0.159137 5.5275 0.477411 6.17997L3.72409 9.50781C4.0289 9.82282 4.44382 10 4.87666 10C5.3095 10 5.72442 9.82282 6.02923 9.50781L12.5226 2.85212C13.1591 2.19966 13.1591 1.14181 12.5226 0.489346C11.886 -0.163115 10.854 -0.163115 10.2174 0.489346Z" fill="#00A0B6"/>
</svg>
